X:204
T:Reel 204
M:4/4
K:Gmaj
L:1/8
dc|BGAG BGAF|G2Bd gedc|BGAG BGAG|FDEF G2dc|BGAG BGAF|G2Bd gedc|BGAG BGAG|FDEF G2|Bd|gfge fgaf|g2ge fddf|gfge fgaf|bgef g2df|gfge fgaf|g2bg fdef|gfgd egdB|cBAF G2|
